X:1
T:Title
%%score { ( 1 3 ) | ( 2 4 5 ) }
L:1/8
M:4/4
K:Bb
V:1 treble nm="Grand Piano"
V:3 treble 
V:2 bass 
V:4 bass 
V:5 bass 
V:1
 z4 z2[Q:1/4=106] [B,D]>[CE] | [DF]2 [DF]>[EG] [DF]2 [DB]>[Ec] | [DB]4 [DF]2 [DF]2 | %3
 G2 EG [FB]2 [FA]>[FB] |[M:3/4] [Fc]6 |[M:1/4] [B,D]>[CE] | %6
[M:4/4] [DF]2 [DF]>[EG] [DF]2 [DB]>[Ec] | B4 G2 G>G | F2 B>B A2 c2 |[M:3/4] [DB]6 |[M:1/4] A>B | %11
[M:4/4] c2 c>c B2 c2 | [Fd]6[K:bass][K:treble] z2 | c2 c>c B2 c2 |[M:3/4] [Fd]6 | %15
[M:11/32] [Fd]/4-[Fd]/4-[Fd]/4-[Fd]/4-[Fd]/4-[Fd]/4-[Fd]/-<[Fd]/ z/4 |[M:4/4] B2- B/4 z/4 z/ z z4 | %17
 (3:2:2A3 G3- G2- G/4 z/4 z/ z | (7:8:5F3/2B3/2.B/ A3/2 c2 |[M:3/4] (3[B,DB-]3 [EB-]3 [DB]3 |] %20
V:2
 z4 z2 [B,,F,]2 | [B,,B,]2 [B,,B,]>[B,,B,] [B,,B,]2 [B,,F,]>[B,,F,] | [B,,F,]4 [B,,B,]2 [B,,B,]2 | %3
 [E,B,E]2 [E,G,B,][E,B,E] [D,B,]2 [C,F,]>[B,,B,] |[M:3/4] [F,A,]6 |[M:1/4] [B,,F,]2 | %6
[M:4/4] [B,,B,]2 [B,,B,]2 [B,,B,]2 [B,,F,]>[B,,F,] | [E,G,E]4 [E,B,E]2 [E,B,E]>[E,B,E] | %8
 [F,B,D]2 [F,DF]>[F,DF] [F,CF]2 [F,A,E]2 |[M:3/4] [B,,B,]6 |[M:1/4] [F,C]>[F,G,D] | %11
[M:4/4] [F,A,E]2 [F,A,E]>[F,A,E] [G,B,D]2 [F,A,E]2 | B,4 z2 [F,C]>[F,G,D] | %13
 [F,A,E]2 [F,A,E]>[F,A,E] [G,B,D]2 [F,A,E]2 |[M:3/4] B,2- [D,B,-][F,B,] B,2 | %15
[M:11/32] [B,,B,]/4-[B,,B,]/4-[B,,B,]/4-[B,,B,]/4-[B,,B,]/-<[B,,B,]/[B,,B,]3/4 | %16
[M:4/4] F,2- F,/4 z/4 z/ z z4 | (3:2:2[E,B,E]3 [E,B,E]3- [E,B,E]2- [E,B,E]/4 z/4 z/ z | %18
 [B,D]2- [B,D]/4 z/4 z/ z z4 |[M:3/4] z2 z z/ G,/- G,/4 z/4 z/ z |] %20
V:3
 x8 | x8 | x8 | x8 |[M:3/4] x6 |[M:1/4] x2 |[M:4/4] x8 | x8 | x8 |[M:3/4] x6 |[M:1/4] x2 | %11
[M:4/4] x8 | z2[K:bass] D,F, B,2[K:treble] A>B | x8 |[M:3/4] x6 | %15
[M:11/32] z/4 z/4 z/4 z/4 z/4 z/4 z/ [Ec]3/4 |[M:4/4] (7:8:5D3/2[DB]3/2.[DB]/ [DB]3/2 [DF]2 | %17
 z4 z2 (3:2:2G2 G | x8 |[M:3/4] z2 z z/ E/- E/4 z/4 z/ z |] %20
V:4
 x8 | x8 | x8 | x8 |[M:3/4] x6 |[M:1/4] x2 |[M:4/4] x8 | x8 | x8 |[M:3/4] x6 |[M:1/4] x2 | %11
[M:4/4] x8 | B,,2 z2 z4 | x8 |[M:3/4] B,,2 z2 z2 |[M:11/32] x11/4 | %16
[M:4/4] (7:8:5B,,3/2[B,,F,]3/2.[B,,F,]/ [B,,F,]3/2 [B,,B,]2 | z4 z2 (3:2:2[=E,B,_D]2 [E,B,D] | %18
 (7:8:5F,3/2[F,DF]3/2.[F,DF]/ [F,CF]3/2 [F,A,E]2 |[M:3/4] (3z3 G,3 F,3 |] %20
V:5
 x8 | x8 | x8 | x8 |[M:3/4] x6 |[M:1/4] x2 |[M:4/4] x8 | x8 | x8 |[M:3/4] x6 |[M:1/4] x2 | %11
[M:4/4] x8 | x8 | x8 |[M:3/4] x6 |[M:11/32] x11/4 |[M:4/4] x8 | x8 | x8 |[M:3/4] B,,6 |] %20

